X:582
T: O HIMMEL WIE LANG SOLL ICH NOCH TRAGEN
N: E0544
O: Europa, Mitteleuropa, Deutschland, Hessen, Darmstadt
R: Liebes - Lied
M: 6/8
L: 1/16
K: F
C2 | F3EF2G2F2G2 | A4c2B6 |
A3BA2G2F2G2 | F6z6 |
A2F2c2G3FE2
F2D2G2E3DC2
F3EF2G3FG2 | A4c2B6 |
A3BA2G3FG2 | F6z4

@@@ Tune index: 4232
